X: 361
T: Little Fanny's Love or Lady Bairds Reel
%R: strathspey
Z: 2014 John Chambers <jc:trillian.mit.edu>
B: Preston "Twenty four Country Dances for the Year 1799" p.161 #1
F: http://www.vwml.org/browse/browse-collections-dance-tune-books/browse-prestons1799# 2014-8-10
M: C|
L: 1/8
K: A
a |\
e<cc>B A>BAE | F<AE>A F<AE>a |\
e<cc>B A>BA>B | B<ee>^d e3 :|
|: =g |\
f<dd>B c>de>c | d<BB>G A>BcE |\
F<AE>A F<AE>f | {f}ed/c/ {e}dc/B/ {B}A3 :|
% - - - - - - - - - - - - - - - - - - - - - - - - -
%%begintext align
%% Set & change sides .| change sides back
%% again :| lead down the middle foot it :|.
%% Allemand :|:
%%endtext
% - - - - - - - - - - - - - - - - - - - - - - - - -

%%sep 1 1 500
%%sep 1 1 500
